X:262
T: Gestern abend bin ich ausgegang (3-64), S. 184
N: P1037
O: Lothringen
S: PINCK, Louis: Verklingende Weisen, Bd3, Metz 1933]
R: Liebe, Standesunterschied]
M: 3/4
L: 1/8
K: D
DE | F2A2FF | E2D2E2 | D4
FG | A3BA2 | G2E2A2 | F4
A2 | F2A2A2 | B3GG2 |
BBd2B2 | A3BA2 |
G2F2F2 | FAA3G | G6 | F4

@@@ Tune index: 7812
